X: 123202
P: Same Figure.
M: C
L: 1/8
K: G	% with endings in Bm
(GA) |\
d2B2 B2(AG) | B2A2 A2(GA) |\
bagf agfe | d2B2B2 :|
|: (uBc) |\
d2B2 g2B2 | d2d2 d3ue |\
d2B2 g2(fg) | a2A2 A2(GA) |\
bagf agfe | d2B2B2 :|


